X:1
T:Miracle from Heaven, 887.87
T:Miracle from Heaven, 887.87
T:Scott Werdebaugh, 2017
T:© 2017 Scott Werdebaugh. Reproduce or publish freely for Christian worship or devotions. Courtesy of the Cyber Hymnal™
C:Scott Werdebaugh, 2017
Z:© 2017 Scott Werdebaugh. Reproduce or publish freely for Christian worship or devotions.
Z:Courtesy of the Cyber Hymnal™
%%score ( 1 2 ) ( 3 4 )
L:1/8
Q:1/4=120
M:4/4
K:C
V:1 treble 
V:2 treble 
V:3 bass 
V:4 bass 
V:1
"^Joyful and upbeat" [EG]2 | [CE]3 [DF] [EG]2 [CG]2 | [CA]3 [DB] [Ec]2 [GB]2 | %3
 [Ec]3 [DB] [FA]2 [EG]2 | [DA]2 [D^F]2 [DG]2 [CE]2 | [CF]3 [CE] [CF]2 [DG]2 | (G3 F) [CE]2 [EG]2 | %7
 [FA]2 [EG]2 [FA]3 [EG] | [DG]3 [DF] [CE]2 [EG]2 | [CF]3 [CE] [B,D]2 [CE]2 | [B,D]4 !fermata!C2 |] %11
V:2
 x2 | x8 | x8 | x8 | x8 | x8 | B,4 x4 | x8 | x8 | x8 | x4 C2 |] %11
V:3
 [C,C]2 | [C,G,]3 [G,,G,] [C,C]2 [E,C]2 | [F,A,]3 [G,,G,] [C,G,]2 [D,G,]2 | %3
 [C,G,]3 [G,,G,] [C,F,]2 [C,C]2 | [D,^F,]2 [D,A,]2 [G,B,]2 [C,G,]2 | %5
 [F,A,]3 [C,G,] [F,A,]2 [G,B,]2 | [D,G,]4 [C,G,]2 [C,C]2 | [F,C]2 [G,C]2 [F,C]3 [C,C] | %8
 [G,B,]3 [G,B,] [C,G,]2 [C,C]2 | [F,A,]3 [C,G,] [G,,G,]2 [C,G,]2 | (G,2 F,2) !fermata![C,E,G,]2 |] %11
V:4
 x2 | x8 | x8 | x8 | x8 | x8 | x8 | x8 | x8 | x8 | G,,4 x2 |] %11

